X: 09045
T: The GUIDING STAR POLKA
C: Bob McQuillen 22 Sept 92
B: Bob's Note Book 9 #45
%R: polka, reel
Z: 2018 John Chambers <jc:trillian.mit.edu>
M: C
L: 1/8
K: D
FG \
| A2AG FDFA | BAGB A2AG | FDFA dfed | c2e2 edcB |
| A2AG FDFA | BAGB A2dB | Adfa gecd | e2d2 d2 :|
|: dB |\
| A2f2 fedc | B2g2 gfed | e2ef gagf | edcB AGFG |
| A2f2 fedc | B2g2 gfed | cedB A2ag | f2d2 d2 :|
%%begintext align
%% Talk about having a good time!
%% Last Saturday I played down in Greenfield, MA, at the Guiding
%% Star Grange Hall, with Roddy Miller, Fiddle, Bill Tomczak
%% Clarinet, and Bill's wife Susan Kevra doing the calling. I'm glad
%% you can't get arrested for having too much fun, because I'd
%% still be in jail if you could! I think Marcy Rawitscher
%% would be in there with me, because we rode down
%% together, and she did seem to get along OK!!
%%endtext

%%sep 1 1 500

%%sep 1 1 500

